algo4dfm/lec09.pics/dffrs_x2_9_950.svg

<svg xmlns="http://www.w3.org/2000/svg" width="500" height="500" viewBox="0 0 50000 50000"><path fill="green" fill-opacity=".4" d="M2900 3300h500v4850h-500zm0 4850h1200v750H2900zm0 750h500v4100h-500zm5450-5900h500v3750h-500zm-900 3750h1400v750H7450z"/><path fill="green" fill-opacity=".4" d="M8550 7100h500v7050h-500zm1900 1300h750v750h-750z"/><path fill="green" fill-opacity=".4" d="M10950 8350h1050v500h-1050zm550-1900h4000v500h-4000zm0 500h500v1400h-500zm2600 2100h1050v750h-1050zm550 750h500v4800h-500zm350-7550h5725v500h-5725zm0 500h500v3700h-500zm2150 6350h500v5000h-500zm1650-2900h750v750h-750zm0-2300h500v2300h-500zm250 3050h500v6400h-500zm5000-300h500v4750h-500zm-250 4750h750v750h-750zm250-7800h500v2300h-500zm2450 6775h500v2525h-500zm0-6775h500v6775h-500zm2300 2300h750v750h-750zm100-2300h500v2300h-500zm150 3050h500v1000h-500zm500 500h1350v500h-1350zm1350 0h500v6200h-500zm2800-3550h500v10500h-500zm2050-2150h3375v500h-3375zm1350 6700h1050v750h-1050zm550-2300h500v2300h-500zm0-2250h500v2250h-500zm0 7250h500v1950h-500zm500-2450h4450v500h-4450zm975-6950h950v500h-950zm950 0h1200v500h-1200zm25 5350h1050v750h-1050zm0-2425h500v2425h-500zm1175-2925h3050v500h-3050zm175 7450h500v5700h-500zm1150-500h1550v500h-1550zm1050-1350h500v1350h-500zm0-500h6850v500h-6850zm675-5100h10125v500H44325zm75 500h500v1300h-500zm2100 8550h500v4100h-500zm0-750h750v750h-750zm5900-7800h500v7500h-500zm3475 4000h750v750h-750zm750 0h1300v500h-1300zm1300-3850h500v3850h-500z"/><path fill="red" fill-opacity=".4" d="M4450 6150h1000v750H4450zm500-4400h5300v500H4950zm0 500h500v3900h-500zm0 4650h500v5200h-500zm4950-650h850v750h-850zm350-4500h500v4500h-500zm200 7400h500v5000h-500zm2300-1450h4150v500h-4150zm0 500h500v3900h-500zm2400 5900h19050v500H15150zm1750-6600h500v700h-500zm0-3600h500v3600h-500zm500 3600h750v750h-750zm3325-5250h2425v500h-2425zm2425 0h7650v500h-7650zm900 3650h1600v750h-1600zm2950 2600h2300v500h-2300zm2300 0h750v750h-750zm1500-6250h500v4150h-500zm500 3650h800v500h-800zm800 0h750v750h-750zm3650-3950h500v10850h-500zm1900 8400h1450v500h-1450zm1450-600h750v1100h-750z"/><path fill="red" fill-opacity=".4" d="M39550 10450h500v4150h-500zm550-7750h500v1675h-500zm1900 3750h50v250h-50zm0-3750h500v3750h-500zm50 3750h500v350h-500zm0 350h750v750h-750zm2350-3550h750v750h-750zm200 7000h500v4350h-500zm0-750h1000v750h-1000zm5900-6100h500v3150h-500zm0 3150h500v2900h-500zm3950-5100h500v9350h-500zm3475 4500h500v6250h-500z"/><path stroke="#00f" stroke-width="10" d="m40625 7175 2750 1475m-3000 0-25-3063m275 1588 1075 4575m-1325-3100 250-1475m-4625 200 2375 3225m-938-8900 463 3025m2450-1188 1900 1038M8150 7125l2675 1650m-2025 1850 2025-1850m6575 2825 1900-1450m-1438-7650 1188 2550m7700 1937 2425-712m-18475 5375 2300-1500"/></svg>

<svg xmlns="http://www.w3.org/2000/svg" width="500" height="500" viewBox="0 0 50000 50000"><path fill="green" fill-opacity=".4" d="M2900 3300h500v4850h-500zM2900 8150h1200v750H2900zM2900 8900h500v4100h-500zM8350 3000h500v3750h-500zM7450 6750h1400v750H7450z"/><path fill="green" fill-opacity=".4" d="M8550 7100h500v7050h-500zM10450 8400h750v750h-750z"/><path fill="green" fill-opacity=".4" d="M10950 8350h1050v500h-1050zM11500 6450h4000v500h-4000zM11500 6950h500v1400h-500zM14100 9050h1050v750h-1050zM14650 9800h500v4800h-500zM15000 2250h5725v500h-5725zM15000 2750h500v3700h-500zM17150 9100h500v5000h-500zM18800 6200h750v750h-750zM18800 3900h500v2300h-500zM19050 6950h500v6400h-500zM24050 6650h500v4750h-500zM23800 11400h750v750h-750zM24050 3600h500v2300h-500zM26500 10375h500v2525h-500zM26500 3600h500v6775h-500zM28800 5900h750v750h-750zM28900 3600h500v2300h-500zM29050 6650h500v1000h-500zM29550 7150h1350v500h-1350zM30900 7150h500v6200h-500zM33700 3600h500v10500h-500zM35750 1450h3375v500h-3375zM37100 8150h1050v750h-1050zM37650 5850h500v2300h-500zM37650 3600h500v2250h-500zM37650 10850h500v1950h-500zM38150 8400h4450v500h-4450zM39125 1450h950v500h-950zM40075 1450h1200v500h-1200zM40100 6800h1050v750h-1050zM40100 4375h500v2425h-500zM41275 1450h3050v500h-3050zM41450 8900h500v5700h-500zM42600 8400h1550v500h-1550zM43650 7050h500v1350h-500zM43650 6550h6850v500h-6850zM44325 1450h10125v500H44325zM44400 1950h500v1300h-500zM46500 10500h500v4100h-500zM46500 9750h750v750h-750zM52400 1950h500v7500h-500zM55875 5950h750v750h-750zM56625 5950h1300v500h-1300zM57925 2100h500v3850h-500z"/><path fill="red" fill-opacity=".4" d="M4450 6150h1000v750H4450zM4950 1750h5300v500H4950zM4950 2250h500v3900h-500zM4950 6900h500v5200h-500zM9900 6250h850v750h-850zM10250 1750h500v4500h-500zM10450 9150h500v5000h-500zM12750 7700h4150v500h-4150zM12750 8200h500v3900h-500zM15150 14100h19050v500H15150zM16900 7500h500v700h-500zM16900 3900h500v3600h-500zM17400 7500h750v750h-750zM20725 2250h2425v500h-2425zM23150 2250h7650v500h-7650zM24050 5900h1600v750h-1600zM27000 8500h2300v500h-2300zM29300 8500h750v750h-750zM30800 2250h500v4150h-500zM31300 5900h800v500h-800zM32100 5900h750v750h-750zM35750 1950h500v10850h-500zM37650 10350h1450v500h-1450zM39100 9750h750v1100h-750z"/><path fill="red" fill-opacity=".4" d="M39550 10450h500v4150h-500zM40100 2700h500v1675h-500zM42000 6450h50v250h-50zM42000 2700h500v3750h-500zM42050 6450h500v350h-500zM42050 6800h750v750h-750zM44400 3250h750v750h-750zM44600 10250h500v4350h-500zM44600 9500h1000v750h-1000zM50500 3400h500v3150h-500zM50500 6550h500v2900h-500zM54450 1450h500v9350h-500zM57925 5950h500v6250h-500z"/><path stroke="#00f" stroke-width="10" d="M40625 7175l2750 1475M40375 8650l-25-3063M40625 7175l1075 4575M40375 8650l250-1475M36000 7375l2375 3225M37437 1700l463 3025M40350 3537l1900 1038M8150 7125l2675 1650M8800 10625l2025-1850M17400 11600l1900-1450M17862 2500l1188 2550M26750 6987l2425-712M10700 11650l2300-1500"/></svg>
